; generated by PrusaSlicer 2.3.3+win64 on 2021-08-19 at 19:39:31 UTC

; 

; external perimeters extrusion width = 0.45mm
; perimeters extrusion width = 0.45mm
; infill extrusion width = 0.45mm
; solid infill extrusion width = 0.45mm
; top infill extrusion width = 0.40mm
; first layer extrusion width = 0.42mm

M73 P0 R78
M73 Q0 S79
M201 X1000 Y1000 Z200 E5000 ; sets maximum accelerations, mm/sec^2
M203 X200 Y200 Z12 E120 ; sets maximum feedrates, mm/sec
M204 P1250 R1250 T1250 ; sets acceleration (P, T) and retract acceleration (R), mm/sec^2
M205 X8.00 Y8.00 Z0.40 E4.50 ; sets the jerk limits, mm/sec
M205 S0 T0 ; sets the minimum extruding and travel feed rate, mm/sec
M107
;TYPE:Custom
M862.3 P "MK3S" ; printer model check
M862.1 P0.4 ; nozzle diameter check
M115 U3.10.0 ; tell printer latest fw version
G90 ; use absolute coordinates
M83 ; extruder relative mode
M104 S215 ; set extruder temp
M140 S50 ; set bed temp
M190 S50 ; wait for bed temp
M109 S215 ; wait for extruder temp
G28 W ; home all without mesh bed level
G80 ; mesh bed leveling
G1 Y-3.0 F1000.0 ; go outside print area
G92 E0.0
G1 X60.0 E9.0 F1000.0 ; intro line
G1 X100.0 E12.5 F1000.0 ; intro line
G92 E0.0
M221 S95

; Don't change E values below. Excessive value can damage the printer.
M907 E430 ; set extruder motor current
G21 ; set units to millimeters
G90 ; use absolute coordinates
M83 ; use relative distances for extrusion
M900 K0.06 ; Filament gcode LA 1.5
M900 K30 ; Filament gcode LA 1.0
;LAYER_CHANGE
;Z:0.2
;HEIGHT:0.2
;BEFORE_LAYER_CHANGE
G92 E0.0
;0.2


G1 E-0.80000 F2100.000
G1 Z0.400 F10800.000
;AFTER_LAYER_CHANGE
;0.2
G1 X89.906 Y77.914
G1 Z0.200
G1 E0.80000 F2100.000
M204 S1000
;TYPE:Skirt
;WIDTH:0.42
G1 F1200.000
G1 X90.722 Y77.022 E0.03790
G1 X91.579 Y76.368 E0.03381
G1 X92.571 Y75.854 E0.03504
G1 X93.630 Y75.522 E0.03477
G1 X94.762 Y75.378 E0.03580
G1 X155.004 Y75.373 E1.88883
M73 Q0 S78
G1 X156.150 Y75.478 E0.03609
G1 X157.396 Y75.840 E0.04068
G1 X158.418 Y76.366 E0.03604
G1 X159.312 Y77.052 E0.03533
G1 X160.085 Y77.903 E0.03604
G1 X160.761 Y79.015 E0.04080
G1 X161.159 Y80.097 E0.03616
G1 X161.355 Y81.226 E0.03593
G1 X161.371 Y128.518 E1.48281
G1 X161.214 Y129.681 E0.03678
G1 X160.777 Y130.950 E0.04208
G1 X160.086 Y132.097 E0.04199
G1 X159.276 Y132.981 E0.03759
G1 X158.419 Y133.633 E0.03378
G1 X157.425 Y134.148 E0.03509
G1 X156.368 Y134.479 E0.03473
G1 X155.235 Y134.623 E0.03581
G1 X94.985 Y134.627 E1.88910
G1 X93.630 Y134.478 E0.04274
G1 X92.342 Y134.047 E0.04258
G1 X91.162 Y133.343 E0.04308
G1 X90.272 Y132.528 E0.03784
G1 X89.619 Y131.672 E0.03376
G1 X89.104 Y130.679 E0.03508
G1 X88.773 Y129.625 E0.03461
G1 X88.628 Y128.503 E0.03548
G1 X88.623 Y81.731 E1.46650
G1 X88.772 Y80.379 E0.04266
G1 X89.203 Y79.092 E0.04254
G1 X89.876 Y77.965 E0.04114
; printing object EspChunky.stl_2 id:1 copy 0
;WIPE_START
G1 F8640.000
G1 X90.722 Y77.022 E-0.29272
G1 X91.579 Y76.368 E-0.24898
G1 X92.419 Y75.933 E-0.21830
;WIPE_END
G1 E-0.04000 F2100.000
G1 Z0.600 F10800.000
G1 X134.417 Y125.938
G1 Z0.200
G1 E0.80000 F2100.000
;TYPE:Perimeter
G1 F1200.000
G1 X134.547 Y125.862 E0.00473
G1 X135.242 Y125.604 E0.02326
G1 X135.873 Y125.825 E0.02096
G1 X136.067 Y125.938 E0.00704
G1 X134.477 Y125.938 E0.04988
;WIPE_START
G1 F8640.000
G1 X134.547 Y125.862 E-0.02387
G1 X135.242 Y125.604 E-0.17131
G1 X135.873 Y125.825 E-0.15433
G1 X136.067 Y125.938 E-0.05184
G1 X134.514 Y125.938 E-0.35866
;WIPE_END
G1 E-0.04000 F2100.000
G1 Z0.600 F10800.000
G1 X136.761 Y127.257
G1 Z0.200
G1 E0.80000 F2100.000
G1 F1200.000
G1 X136.794 Y127.199 E0.00208
G1 X136.801 Y127.354 E0.00486
G1 X136.739 Y127.700 E0.01100
G1 X136.674 Y127.879 E0.00597
G1 X136.580 Y128.059 E0.00638
G1 X136.463 Y128.226 E0.00638
G1 X136.327 Y128.373 E0.00628
G1 X136.144 Y128.524 E0.00744
G1 X135.970 Y128.627 E0.00632
G1 X136.731 Y127.309 E0.04771
;WIPE_START
G1 F8640.000
G1 X136.794 Y127.199 E-0.02920
G1 X136.801 Y127.354 E-0.03582
G1 X136.739 Y127.700 E-0.08104
G1 X136.674 Y127.879 E-0.04399
G1 X136.580 Y128.059 E-0.04696
G1 X136.463 Y128.226 E-0.04696
G1 X136.327 Y128.373 E-0.04626
G1 X136.144 Y128.524 E-0.05482
G1 X135.970 Y128.627 E-0.04657
G1 X136.681 Y127.395 E-0.32838
;WIPE_END
G1 E-0.04000 F2100.000
G1 Z0.600 F10800.000
G1 X134.509 Y128.592
G1 Z0.200
G1 E0.80000 F2100.000
G1 F1200.000
G1 X134.527 Y128.621 E0.00107
G1 X134.277 Y128.465 E0.00924
G1 X134.127 Y128.327 E0.00638
G1 X133.996 Y128.172 E0.00638
G1 X133.886 Y128.000 E0.00638
G1 X133.805 Y127.828 E0.00597
G1 X133.711 Y127.476 E0.01141
G1 X133.698 Y127.186 E0.00911
G1 X134.479 Y128.540 E0.04900
;WIPE_START
G1 F8640.000
G1 X134.527 Y128.621 E-0.02174
G1 X134.277 Y128.465 E-0.06807
G1 X134.127 Y128.327 E-0.04696
G1 X133.996 Y128.172 E-0.04696
G1 X133.886 Y128.000 E-0.04696
G1 X133.805 Y127.828 E-0.04399
G1 X133.711 Y127.476 E-0.08402
G1 X133.698 Y127.186 E-0.06710
G1 X134.422 Y128.440 E-0.33421
;WIPE_END
G1 E-0.04000 F2100.000
G1 Z0.600 F10800.000
G1 X145.688 Y106.469
G1 Z0.200
G1 E0.80000 F2100.000
G1 F1200.000
G1 X150.312 Y106.469 E0.14500
G1 X150.311 Y110.113 E0.11424
G1 X150.295 Y110.871 E0.02378
G1 X153.998 Y107.554 E0.15588
G1 X154.192 Y107.410 E0.00756
G1 X154.431 Y107.290 E0.00841
G1 X154.693 Y107.211 E0.00859
G1 X155.018 Y107.179 E0.01024
G1 X155.425 Y107.236 E0.01289
G1 X155.848 Y107.430 E0.01457
G1 X156.197 Y107.744 E0.01473
G1 X156.431 Y108.144 E0.01452
G1 X156.533 Y108.547 E0.01303
G1 X156.517 Y109.010 E0.01452
G1 X156.359 Y109.452 E0.01473
G1 X156.096 Y109.801 E0.01371
G1 X141.593 Y122.719 E0.60895
G1 X141.377 Y122.866 E0.00818
G1 X141.089 Y122.989 E0.00983
G1 X140.812 Y123.048 E0.00889
G1 X140.542 Y123.056 E0.00846
G1 X140.277 Y123.017 E0.00841
G1 X140.022 Y122.932 E0.00841
G1 X139.780 Y122.802 E0.00862
G1 X139.526 Y122.593 E0.01031
G1 X139.324 Y122.333 E0.01032
G1 X139.198 Y122.082 E0.00882
G1 X139.112 Y121.771 E0.01011
G1 X139.092 Y121.492 E0.00879
G1 X139.129 Y121.180 E0.00983
G1 X139.219 Y120.905 E0.00909
G1 X139.379 Y120.623 E0.01016
G1 X139.550 Y120.425 E0.00821
G1 X149.206 Y111.830 E0.40533
G1 X145.688 Y111.844 E0.11031
G1 X145.688 Y106.529 E0.16663
G1 X146.065 Y106.846 F10800.000
;TYPE:External perimeter
G1 F1200.000
G1 X149.935 Y106.846 E0.12134
G1 X149.934 Y110.109 E0.10229
G1 X149.906 Y111.437 E0.04165
G1 X148.656 Y111.465 E0.03919
G1 X146.065 Y111.467 E0.08124
G1 X146.065 Y106.906 E0.14298
G1 X145.997 Y106.452 F10800.000
;WIPE_START
G1 F8640.000
G1 X149.356 Y106.855 E-0.76000
;WIPE_END
G1 E-0.04000 F2100.000
G1 Z0.600 F10800.000
G1 X141.196 Y122.533
G1 Z0.200
G1 E0.80000 F2100.000
G1 F1200.000
G1 X140.975 Y122.628 E0.00753
G1 X140.767 Y122.672 E0.00667
G1 X140.564 Y122.678 E0.00636
G1 X140.364 Y122.648 E0.00634
G1 X140.172 Y122.585 E0.00634
G1 X139.992 Y122.488 E0.00642
G1 X139.798 Y122.328 E0.00786
G1 X139.644 Y122.131 E0.00786
G1 X139.551 Y121.946 E0.00649
G1 X139.485 Y121.706 E0.00778
G1 X139.470 Y121.500 E0.00648
G1 X139.499 Y121.262 E0.00753
G1 X139.566 Y121.058 E0.00674
G1 X139.688 Y120.841 E0.00780
G1 X139.819 Y120.690 E0.00627
G1 X149.071 Y112.448 E0.38852
G1 X150.186 Y111.474 E0.04640
G1 X154.237 Y107.846 E0.17050
G1 X154.390 Y107.732 E0.00600
G1 X154.571 Y107.641 E0.00634
G1 X154.767 Y107.583 E0.00641
G1 X155.010 Y107.559 E0.00767
G1 X155.318 Y107.602 E0.00976
G1 X155.638 Y107.748 E0.01103
G1 X155.901 Y107.985 E0.01109
G1 X156.079 Y108.288 E0.01102
G1 X156.155 Y108.587 E0.00966
G1 X156.142 Y108.938 E0.01102
G1 X156.024 Y109.271 E0.01109
G1 X155.817 Y109.544 E0.01072
G1 X141.361 Y122.421 E0.60701
G1 X141.245 Y122.500 E0.00438
G1 X141.193 Y122.773 F10800.000
;WIPE_START
G1 F8640.000
G1 X140.975 Y122.628 E-0.06909
G1 X140.767 Y122.672 E-0.04909
G1 X140.564 Y122.678 E-0.04684
G1 X140.364 Y122.648 E-0.04672
G1 X140.172 Y122.585 E-0.04672
G1 X139.992 Y122.488 E-0.04726
G1 X139.798 Y122.328 E-0.05785
G1 X139.644 Y122.131 E-0.05785
G1 X139.551 Y121.946 E-0.04779
G1 X139.485 Y121.706 E-0.05732
G1 X139.470 Y121.500 E-0.04771
G1 X139.499 Y121.262 E-0.05544
G1 X139.566 Y121.058 E-0.04962
G1 X139.688 Y120.841 E-0.05743
G1 X139.754 Y120.765 E-0.02326
;WIPE_END
G1 E-0.04000 F2100.000
G1 Z0.600 F10800.000
G1 X139.210 Y114.695
G1 Z0.200
G1 E0.80000 F2100.000
;TYPE:Perimeter
G1 F1200.000
G1 X138.955 Y115.066 E0.01412
G1 X132.421 Y120.885 E0.27433
G1 X132.191 Y121.028 E0.00850
G1 X131.893 Y121.141 E0.00997
G1 X131.626 Y121.186 E0.00850
G1 X131.362 Y121.185 E0.00830
G1 X131.101 Y121.139 E0.00830
G1 X130.852 Y121.049 E0.00830
G1 X130.623 Y120.917 E0.00830
G1 X130.414 Y120.744 E0.00850
G1 X130.213 Y120.497 E0.00997
G1 X130.085 Y120.258 E0.00850
G1 X130.000 Y120.001 E0.00850
G1 X129.960 Y119.679 E0.01017
G1 X129.989 Y119.356 E0.01017
G1 X130.065 Y119.096 E0.00850
G1 X130.184 Y118.853 E0.00850
G1 X130.376 Y118.599 E0.00997
G1 X136.858 Y112.822 E0.27223
G1 X137.069 Y112.679 E0.00801
G1 X137.314 Y112.569 E0.00841
G1 X137.573 Y112.503 E0.00838
G1 X137.845 Y112.483 E0.00854
G1 X138.245 Y112.539 E0.01269
G1 X138.668 Y112.732 E0.01457
G1 X139.012 Y113.043 E0.01452
G1 X139.230 Y113.395 E0.01300
G1 X139.350 Y113.827 E0.01404
G1 X139.346 Y114.251 E0.01330
G1 X139.228 Y114.638 E0.01269
G1 X138.867 Y114.527 F10800.000
;TYPE:External perimeter
G1 F1200.000
G1 X138.670 Y114.814 E0.01093
G1 X132.195 Y120.582 E0.27189
G1 X132.023 Y120.689 E0.00633
G1 X131.794 Y120.775 E0.00768
G1 X131.595 Y120.809 E0.00633
G1 X131.396 Y120.808 E0.00626
G1 X131.199 Y120.773 E0.00626
G1 X131.012 Y120.705 E0.00626
G1 X130.838 Y120.606 E0.00626
G1 X130.683 Y120.477 E0.00633
G1 X130.528 Y120.287 E0.00768
G1 X130.433 Y120.109 E0.00633
G1 X130.370 Y119.918 E0.00633
G1 X130.339 Y119.673 E0.00775
G1 X130.361 Y119.426 E0.00775
G1 X130.418 Y119.233 E0.00633
G1 X130.506 Y119.051 E0.00633
G1 X130.655 Y118.856 E0.00768
G1 X137.090 Y113.120 E0.27030
G1 X137.254 Y113.009 E0.00620
G1 X137.438 Y112.926 E0.00634
G1 X137.634 Y112.877 E0.00633
G1 X137.833 Y112.862 E0.00624
G1 X138.138 Y112.905 E0.00968
G1 X138.458 Y113.051 E0.01103
G1 X138.719 Y113.287 E0.01102
G1 X138.881 Y113.548 E0.00964
G1 X138.973 Y113.877 E0.01069
G1 X138.970 Y114.192 E0.00990
G1 X138.885 Y114.470 E0.00909
G1 X139.062 Y114.816 F10800.000
;WIPE_START
G1 F8640.000
G1 X138.670 Y114.814 E-0.09380
G1 X136.515 Y116.733 E-0.66620
;WIPE_END
G1 E-0.04000 F2100.000
G1 Z0.600 F10800.000
G1 X137.034 Y120.583
G1 Z0.200
G1 E0.80000 F2100.000
;TYPE:Perimeter
G1 F1200.000
G1 X137.034 Y124.378 E0.11901
G1 X137.429 Y124.661 E0.01522
G1 X137.743 Y124.963 E0.01367
G1 X137.936 Y125.194 E0.00945
G1 X138.109 Y125.442 E0.00945
G1 X138.318 Y125.824 E0.01367
G1 X138.478 Y126.236 E0.01387
G1 X138.584 Y126.672 E0.01407
G1 X138.633 Y127.240 E0.01788
G1 X138.619 Y127.554 E0.00985
G1 X138.552 Y127.991 E0.01387
G1 X138.378 Y128.541 E0.01806
G1 X138.190 Y128.923 E0.01334
G1 X138.014 Y129.202 E0.01036
G1 X137.646 Y129.639 E0.01792
G1 X137.313 Y129.931 E0.01387
G1 X137.056 Y130.111 E0.00985
G1 X136.556 Y130.371 E0.01768
G1 X136.261 Y130.478 E0.00985
G1 X135.843 Y130.580 E0.01346
G1 X135.539 Y130.621 E0.00963
G1 X135.113 Y130.631 E0.01335
G1 X134.519 Y130.554 E0.01879
G1 X133.968 Y130.381 E0.01811
G1 X133.683 Y130.248 E0.00985
G1 X133.305 Y130.019 E0.01387
G1 X132.863 Y129.648 E0.01808
G1 X132.571 Y129.316 E0.01387
G1 X132.395 Y129.064 E0.00963
G1 X132.195 Y128.703 E0.01294
G1 X132.068 Y128.399 E0.01036
G1 X131.918 Y127.841 E0.01812
G1 X131.866 Y127.260 E0.01828
G1 X131.896 Y126.805 E0.01427
G1 X132.021 Y126.236 E0.01828
G1 X132.244 Y125.697 E0.01828
G1 X132.479 Y125.308 E0.01427
G1 X132.853 Y124.860 E0.01828
G1 X133.304 Y124.481 E0.01847
G1 X133.466 Y124.387 E0.00587
G1 X133.466 Y120.583 E0.11928
G1 X136.974 Y120.583 E0.11000
G1 X136.657 Y120.960 F10800.000
;TYPE:External perimeter
G1 F1200.000
G1 X136.657 Y124.601 E0.11416
G1 X136.869 Y124.718 E0.00759
G1 X137.185 Y124.951 E0.01231
G1 X137.467 Y125.221 E0.01225
G1 X137.788 Y125.641 E0.01656
G1 X137.975 Y125.983 E0.01225
G1 X138.117 Y126.350 E0.01232
G1 X138.211 Y126.734 E0.01239
G1 X138.255 Y127.248 E0.01620
G1 X138.243 Y127.517 E0.00843
G1 X138.183 Y127.905 E0.01232
G1 X138.027 Y128.400 E0.01627
G1 X137.861 Y128.738 E0.01181
G1 X137.708 Y128.979 E0.00893
G1 X137.376 Y129.375 E0.01621
G1 X137.080 Y129.634 E0.01232
G1 X136.860 Y129.788 E0.00843
G1 X136.404 Y130.025 E0.01613
G1 X136.151 Y130.117 E0.00843
G1 X135.774 Y130.209 E0.01217
G1 X135.510 Y130.244 E0.00835
G1 X135.133 Y130.253 E0.01182
G1 X134.600 Y130.185 E0.01684
G1 X134.105 Y130.029 E0.01628
G1 X133.861 Y129.915 E0.00843
G1 X133.525 Y129.711 E0.01232
G1 X133.127 Y129.378 E0.01627
G1 X132.868 Y129.083 E0.01232
G1 X132.715 Y128.865 E0.00835
G1 X132.535 Y128.539 E0.01167
G1 X132.425 Y128.276 E0.00893
G1 X132.290 Y127.774 E0.01629
G1 X132.244 Y127.255 E0.01635
G1 X132.270 Y126.859 E0.01246
G1 X132.382 Y126.349 E0.01635
G1 X132.581 Y125.868 E0.01635
G1 X132.787 Y125.527 E0.01246
G1 X133.121 Y125.128 E0.01635
G1 X133.522 Y124.791 E0.01641
G1 X133.843 Y124.604 E0.01164
G1 X133.843 Y120.960 E0.11426
G1 X134.996 Y120.960 E0.03617
G1 X134.996 Y125.293 E0.13587
G1 X134.385 Y125.520 E0.02044
G1 X134.171 Y125.645 E0.00779
G1 X133.970 Y125.799 E0.00792
G1 X133.792 Y125.978 E0.00792
G1 X133.639 Y126.179 E0.00792
G1 X133.512 Y126.400 E0.00797
G1 X133.370 Y126.793 E0.01312
G1 X133.327 Y127.043 E0.00795
G1 X133.316 Y127.296 E0.00792
G1 X133.338 Y127.543 E0.00778
G1 X133.450 Y127.958 E0.01348
G1 X133.555 Y128.183 E0.00778
G1 X133.691 Y128.396 E0.00792
G1 X133.854 Y128.589 E0.00792
G1 X134.040 Y128.760 E0.00792
G1 X134.246 Y128.903 E0.00785
G1 X134.552 Y129.054 E0.01070
G1 X134.791 Y129.129 E0.00785
G1 X135.039 Y129.173 E0.00792
G1 X135.295 Y129.184 E0.00803
G1 X135.629 Y129.147 E0.01053
G1 X135.871 Y129.082 E0.00786
G1 X136.104 Y128.986 E0.00789
G1 X136.361 Y128.834 E0.00938
G1 X136.587 Y128.648 E0.00918
G1 X136.757 Y128.462 E0.00789
G1 X136.903 Y128.255 E0.00792
G1 X137.020 Y128.031 E0.00792
G1 X137.105 Y127.798 E0.00778
G1 X137.179 Y127.380 E0.01333
G1 X137.162 Y126.959 E0.01322
G1 X137.066 Y126.586 E0.01207
G1 X136.905 Y126.250 E0.01167
G1 X136.709 Y125.980 E0.01046
G1 X136.398 Y125.694 E0.01326
G1 X136.032 Y125.481 E0.01328
G1 X135.504 Y125.296 E0.01755
G1 X135.504 Y120.960 E0.13596
G1 X136.597 Y120.960 E0.03429
G1 X137.020 Y120.791 F10800.000
;WIPE_START
G1 F8640.000
G1 X136.651 Y124.251 E-0.76000
;WIPE_END
G1 E-0.04000 F2100.000
G1 Z0.600 F10800.000
G1 X133.630 Y126.315
G1 Z0.200
G1 E0.80000 F2100.000
G1 F1200.000
G1 X136.870 Y126.315 E0.10156
G1 X135.487 Y128.710 E0.08671
G1 X135.013 Y128.710 E0.01484
G1 X133.660 Y126.367 E0.08483
G1 X133.543 Y125.925 F10800.000
;WIPE_START
G1 F8640.000
G1 X136.870 Y126.315 E-0.74107
G1 X136.829 Y126.386 E-0.01893
;WIPE_END
G1 E-0.04000 F2100.000
G1 Z0.600 F10800.000
G1 X149.466 Y120.583
G1 Z0.200
G1 E0.80000 F2100.000
;TYPE:Perimeter
G1 F1200.000
G1 X153.034 Y120.583 E0.11188
G1 X153.034 Y124.378 E0.11901
G1 X153.429 Y124.661 E0.01522
G1 X153.743 Y124.963 E0.01367
G1 X153.941 Y125.199 E0.00965
G1 X154.182 Y125.562 E0.01367
G1 X154.377 Y125.959 E0.01387
G1 X154.517 Y126.372 E0.01367
G1 X154.585 Y126.679 E0.00985
G1 X154.633 Y127.240 E0.01768
G1 X154.619 Y127.554 E0.00985
G1 X154.554 Y127.979 E0.01346
G1 X154.474 Y128.276 E0.00965
G1 X154.313 Y128.688 E0.01387
G1 X154.021 Y129.193 E0.01828
G1 X153.646 Y129.639 E0.01828
G1 X153.313 Y129.931 E0.01387
G1 X153.056 Y130.111 E0.00985
G1 X152.556 Y130.371 E0.01768
G1 X152.261 Y130.478 E0.00985
G1 X151.843 Y130.580 E0.01347
G1 X151.539 Y130.621 E0.00963
G1 X151.113 Y130.631 E0.01335
G1 X150.519 Y130.554 E0.01879
G1 X149.968 Y130.381 E0.01811
G1 X149.683 Y130.248 E0.00985
G1 X149.316 Y130.026 E0.01346
G1 X149.072 Y129.839 E0.00963
G1 X148.764 Y129.545 E0.01335
G1 X148.402 Y129.077 E0.01857
G1 X148.195 Y128.703 E0.01337
G1 X148.068 Y128.399 E0.01036
G1 X147.919 Y127.847 E0.01792
G1 X147.869 Y127.394 E0.01427
G1 X147.894 Y126.812 E0.01828
G1 X148.021 Y126.236 E0.01849
G1 X148.244 Y125.697 E0.01828
G1 X148.479 Y125.308 E0.01427
G1 X148.853 Y124.860 E0.01828
G1 X149.304 Y124.481 E0.01847
G1 X149.466 Y124.387 E0.00587
G1 X149.466 Y120.643 E0.11740
G1 X149.843 Y120.960 F10800.000
;TYPE:External perimeter
G1 F1200.000
G1 X150.997 Y120.960 E0.03617
M73 P0 R77
